static/assets/images/tokens/sfrxeth.svg

<svg xmlns="http://www.w3.org/2000/svg" fill="none" viewBox="0 0 256 256"><path fill="#fff" d="m183.593 145.215-52.511 31.681v41.959l21.607-30.31 22.553 22.451 15.983-15.911-25.264-25.149zm-58.16 31.681-52.511-31.681 17.632 24.721-25.264 25.149 15.983 15.911 22.554-22.442 21.606 30.292zm-4.248-57.216q-5.787-1.233-8.909-4.931a12.7 12.7 0 0 1-1.485-2.251q-1.245-2.406-1.543-5.455a21 21 0 0 1-.094-1.98q0-3.962 2.209-7.132 2.284-3.258 6.319-5.107 3.492-1.645 7.751-1.893.757-.044 1.538-.044 2.143 0 4.111.326 2.718.45 5.102 1.523 4.188 1.76 6.624 4.579 2.437 2.817 2.665 5.899a2.07 2.07 0 0 1-.609 1.673q-.502.58-1.159.683a2 2 0 0 1-.287.021h-9.061q-.838 0-1.98-.968a7 7 0 0 0-2.132-1.321q-1.141-.528-3.274-.528-1.827 0-2.969.616-1.143.616-1.142 1.849 0 1.057.38 1.585.168.194.419.353.43.272 1.104.44.286.066.67.142 1.157.232 3.213.562l2.436.454 2.285.426q6.625 1.233 9.898 5.284 3.35 3.962 3.35 9.509 0 3.963-2.36 7.308-2.284 3.258-6.7 5.195-2.883 1.287-6.473 1.719a32 32 0 0 1-3.806.218q-.942 0-1.843-.05-4.57-.254-8.132-1.799-4.187-1.936-6.471-4.842-2.209-2.906-2.437-5.9-.076-.969.533-1.673.685-.704 1.523-.704h9.441q.534 0 .838.264.381.176.837.704a8.1 8.1 0 0 0 2.056 1.585q1.142.529 3.655.529 2.36 0 3.959-.705 1.675-.792 1.675-2.025 0-1.409-1.218-1.849-1.142-.528-5.025-1.233z"/><path fill="#fff" fill-rule="evenodd" d="m184.19 128.405-53.108 32.039v-10.623c16.271-1.63 29.304-14.247 31.569-30.323zm-21.203-14.859 20.72 8.572-12.579-20.417 26.747-26.625-15.983-15.919-22.914 22.818-27.896-45.269V79.18c17.613 1.764 31.432 16.404 31.905 34.367M125.433 79.06V36.706L97.546 81.975 74.624 59.157 58.64 75.077l26.746 26.616-12.58 20.425L92 114.178c.167-18.766 14.894-34.054 33.432-35.119m-32.996 41.029-20.111 8.317 53.107 32.039v-10.503c-16.77-.963-30.42-13.566-32.996-29.853m38.645 56.808 52.511-31.681-17.632 24.721 25.264 25.149-15.983 15.911-22.553-22.451-21.607 30.31zm-58.16-31.681 52.511 31.681v41.95l-21.606-30.292-22.554 22.442-15.983-15.911 25.264-25.149z" clip-rule="evenodd"/><path fill="#000" fill-rule="evenodd" d="M112.276 114.749q3.122 3.698 8.909 4.931l5.482 1.056q3.883.705 5.025 1.233 1.218.44 1.218 1.849 0 1.233-1.675 2.025-1.6.705-3.959.705-2.513 0-3.655-.529a8.1 8.1 0 0 1-2.056-1.585q-.456-.528-.837-.704-.304-.264-.838-.264h-9.441q-.838 0-1.523.704-.61.704-.533 1.673.228 2.993 2.437 5.9 2.284 2.905 6.471 4.842 3.562 1.545 8.132 1.799.901.05 1.843.05 1.994 0 3.806-.218 3.59-.432 6.473-1.719 4.416-1.937 6.7-5.195 2.36-3.345 2.36-7.308 0-5.547-3.35-9.509-3.273-4.051-9.898-5.284l-2.285-.426-2.436-.454a88 88 0 0 1-3.213-.562q-.384-.076-.67-.142-.673-.168-1.104-.44a1.9 1.9 0 0 1-.419-.353q-.38-.528-.38-1.585 0-1.233 1.142-1.849t2.969-.616q2.133 0 3.274.528a7 7 0 0 1 2.132 1.321q1.142.969 1.98.968h9.061q.147 0 .287-.021.657-.102 1.159-.683.685-.705.609-1.673-.228-3.082-2.665-5.9-2.436-2.817-6.624-4.578a20.6 20.6 0 0 0-5.102-1.523 25 25 0 0 0-4.111-.326q-.781 0-1.538.044-4.26.248-7.751 1.893-4.035 1.85-6.319 5.107-2.21 3.17-2.209 7.132 0 1.021.094 1.98.298 3.049 1.543 5.455a12.7 12.7 0 0 0 1.485 2.251" clip-rule="evenodd"/><path fill="#fff" fill-rule="evenodd" d="m131.082 160.444 53.108-32.039-21.539-8.907c-2.265 16.076-15.298 28.693-31.569 30.323zm-5.649 0v-10.503c-16.77-.963-30.42-13.566-32.996-29.853l-20.111 8.317zm58.274-38.326-12.579-20.417 26.747-26.625-15.983-15.919-22.914 22.818-27.896-45.269V79.18c17.613 1.764 31.432 16.404 31.905 34.367zm-58.274-85.412L97.546 81.975 74.624 59.157 58.64 75.077l26.746 26.616-12.58 20.425L92 114.178c.167-18.766 14.894-34.054 33.432-35.119zm-4.248 82.974q-5.787-1.233-8.909-4.931a12.7 12.7 0 0 1-1.485-2.251q-1.245-2.406-1.543-5.455a21 21 0 0 1-.094-1.98q0-3.962 2.209-7.132 2.284-3.258 6.319-5.107 3.492-1.645 7.751-1.893.757-.044 1.538-.044 2.143 0 4.111.326 2.718.45 5.102 1.523 4.188 1.76 6.624 4.579 2.437 2.817 2.665 5.899a2.07 2.07 0 0 1-.609 1.673q-.502.58-1.159.683a2 2 0 0 1-.287.021h-9.061q-.838 0-1.98-.968a7 7 0 0 0-2.132-1.321q-1.141-.528-3.274-.528-1.827 0-2.969.616-1.143.616-1.142 1.849 0 1.057.38 1.585.168.194.419.353.43.272 1.104.44.286.066.67.142 1.157.232 3.213.562l2.436.454 2.285.426q6.625 1.233 9.898 5.284 3.35 3.962 3.35 9.509 0 3.963-2.36 7.308-2.284 3.258-6.7 5.195-2.883 1.287-6.473 1.719a32 32 0 0 1-3.806.218q-.942 0-1.843-.05-4.57-.254-8.132-1.799-4.187-1.936-6.471-4.842-2.209-2.906-2.437-5.9-.076-.969.533-1.673.685-.704 1.523-.704h9.441q.534 0 .838.264.381.176.837.704a8.1 8.1 0 0 0 2.056 1.585q1.142.529 3.655.529 2.36 0 3.959-.705 1.675-.792 1.675-2.025 0-1.409-1.218-1.849-1.142-.528-5.025-1.233z" clip-rule="evenodd"/><path fill="#000" fill-rule="evenodd" d="M256 128c0 70.692-57.308 128-128 128S0 198.692 0 128 57.308 0 128 0s128 57.308 128 128m-71.81.405-53.108 32.039v-10.623a35.6 35.6 0 0 1-5.649.12v10.503l-53.107-32.039 20.111-8.317c2.576 16.287 16.226 28.89 32.996 29.853a36 36 0 0 0 5.649-.12c16.271-1.63 29.304-14.247 31.569-30.323zm-13.062-26.704 12.579 20.417-20.72-8.572c-.473-17.963-14.292-32.603-31.905-34.368V36.707l27.896 45.269 22.914-22.818 15.983 15.92zM97.546 81.975l27.887-45.269V79.06c-18.538 1.065-33.265 16.353-33.432 35.119l-19.193 7.94 12.58-20.425L58.64 75.076l15.983-15.919zm33.536 94.921 52.511-31.681-17.632 24.721 25.264 25.149-15.983 15.911-22.553-22.451-21.607 30.31zm-58.16-31.681 52.511 31.681v41.95l-21.606-30.292-22.554 22.442-15.983-15.911 25.264-25.149zm39.354-30.466q3.122 3.698 8.909 4.931l5.482 1.056q3.883.705 5.025 1.233 1.218.44 1.218 1.849 0 1.233-1.675 2.025-1.6.705-3.959.705-2.513 0-3.655-.529a8.1 8.1 0 0 1-2.056-1.585q-.456-.528-.837-.704-.304-.264-.838-.264h-9.441q-.838 0-1.523.704-.61.704-.533 1.673.228 2.993 2.437 5.9 2.284 2.905 6.471 4.842 3.562 1.545 8.132 1.799.901.05 1.843.05 1.994 0 3.806-.218 3.59-.432 6.473-1.719 4.416-1.937 6.7-5.195 2.36-3.345 2.36-7.308 0-5.547-3.35-9.509-3.273-4.051-9.898-5.284l-2.285-.426-2.436-.454a88 88 0 0 1-3.213-.562q-.384-.076-.67-.142-.673-.168-1.104-.44a1.9 1.9 0 0 1-.419-.353q-.38-.528-.38-1.585 0-1.233 1.142-1.849t2.969-.616q2.133 0 3.274.528a7 7 0 0 1 2.132 1.321q1.142.969 1.98.968h9.061q.147 0 .287-.021.657-.102 1.159-.683.685-.705.609-1.673-.228-3.082-2.665-5.9-2.436-2.817-6.624-4.578a20.6 20.6 0 0 0-5.102-1.523 25 25 0 0 0-4.111-.326q-.781 0-1.538.044-4.26.248-7.751 1.893-4.035 1.85-6.319 5.107-2.21 3.17-2.209 7.132 0 1.021.094 1.98.298 3.049 1.543 5.455a12.7 12.7 0 0 0 1.485 2.251" clip-rule="evenodd"/></svg>

<svg width="256" height="256" viewBox="0 0 256 256" fill="none" xmlns="http://www.w3.org/2000/svg">
<path d="M183.593 145.215L131.082 176.896V218.855L152.689 188.545L175.242 210.996L191.225 195.085L165.961 169.936L183.593 145.215Z" fill="white"/>
<path d="M125.433 176.896L72.922 145.215L90.5543 169.936L65.2901 195.085L81.2732 210.996L103.827 188.554L125.433 218.846V176.896Z" fill="white"/>
<path d="M121.185 119.68C117.327 118.858 114.357 117.214 112.276 114.749C111.702 114.052 111.207 113.302 110.791 112.498C109.961 110.894 109.447 109.075 109.248 107.043C109.186 106.404 109.154 105.744 109.154 105.063C109.154 102.422 109.89 100.044 111.363 97.931C112.885 95.759 114.992 94.0567 117.682 92.824C120.01 91.7274 122.593 91.0964 125.433 90.931C125.938 90.9016 126.45 90.8869 126.971 90.8869C128.4 90.8869 129.77 90.9956 131.082 91.2132C132.894 91.5135 134.595 92.021 136.184 92.7359C138.976 93.91 141.184 95.4362 142.808 97.3146C144.433 99.193 145.321 101.159 145.473 103.214C145.524 103.86 145.321 104.417 144.864 104.887C144.53 105.274 144.143 105.502 143.705 105.57C143.612 105.584 143.516 105.591 143.418 105.591H134.357C133.798 105.591 133.139 105.269 132.377 104.623C131.717 104.036 131.007 103.596 130.245 103.302C129.484 102.95 128.393 102.774 126.971 102.774C125.753 102.774 124.763 102.979 124.002 103.39C123.24 103.801 122.86 104.417 122.86 105.239C122.86 105.944 122.987 106.472 123.24 106.824C123.352 106.954 123.492 107.071 123.659 107.177C123.946 107.359 124.314 107.505 124.763 107.617C124.953 107.661 125.177 107.708 125.433 107.759C126.204 107.914 127.275 108.101 128.646 108.321L131.082 108.775L133.367 109.201C137.783 110.023 141.083 111.784 143.265 114.485C145.499 117.126 146.615 120.296 146.615 123.994C146.615 126.636 145.829 129.072 144.255 131.302C142.732 133.474 140.499 135.206 137.555 136.497C135.633 137.355 133.475 137.928 131.082 138.216C129.874 138.362 128.605 138.434 127.276 138.434C126.648 138.434 126.034 138.418 125.433 138.384C122.386 138.215 119.676 137.615 117.301 136.585C114.51 135.294 112.352 133.68 110.83 131.743C109.358 129.805 108.545 127.839 108.393 125.843C108.342 125.197 108.52 124.64 108.926 124.17C109.383 123.701 109.89 123.466 110.449 123.466H119.89C120.246 123.466 120.525 123.554 120.728 123.73C120.982 123.847 121.261 124.082 121.565 124.434C122.174 125.08 122.86 125.608 123.621 126.019C124.382 126.371 125.601 126.548 127.276 126.548C128.849 126.548 130.169 126.313 131.235 125.843C132.352 125.315 132.91 124.64 132.91 123.818C132.91 122.879 132.504 122.262 131.692 121.969C130.931 121.617 129.255 121.206 126.667 120.736L121.185 119.68Z" fill="white"/>
<path fill-rule="evenodd" clip-rule="evenodd" d="M184.19 128.405L131.082 160.444V149.821C147.353 148.191 160.386 135.574 162.651 119.498L184.19 128.405ZM162.987 113.546L183.707 122.118L171.128 101.701L197.875 75.0764L181.892 59.1572L158.978 81.9749L131.082 36.7063V79.1785C148.695 80.9435 162.514 95.5826 162.987 113.546ZM125.433 79.0592V36.7063L97.5459 81.9749L74.6238 59.1572L58.6407 75.0764L85.3874 101.693L72.8079 122.118L92.0014 114.178C92.1683 95.4124 106.895 80.1235 125.433 79.0592ZM92.4373 120.088L72.3255 128.405L125.433 160.444V149.941C108.663 148.978 95.0125 136.375 92.4373 120.088ZM131.082 176.896L183.593 145.215L165.961 169.936L191.225 195.085L175.242 210.996L152.689 188.545L131.082 218.855V176.896ZM72.922 145.215L125.433 176.896V218.846L103.827 188.554L81.2732 210.996L65.2901 195.085L90.5543 169.936L72.922 145.215Z" fill="white"/>
<path fill-rule="evenodd" clip-rule="evenodd" d="M112.276 114.749C114.357 117.214 117.327 118.858 121.185 119.68L126.667 120.736C129.255 121.206 130.931 121.617 131.692 121.969C132.504 122.262 132.91 122.879 132.91 123.818C132.91 124.64 132.352 125.315 131.235 125.843C130.169 126.313 128.849 126.548 127.276 126.548C125.601 126.548 124.382 126.371 123.621 126.019C122.86 125.608 122.174 125.08 121.565 124.434C121.261 124.082 120.982 123.847 120.728 123.73C120.525 123.554 120.246 123.466 119.89 123.466H110.449C109.89 123.466 109.383 123.701 108.926 124.17C108.52 124.64 108.342 125.197 108.393 125.843C108.545 127.839 109.358 129.805 110.83 131.743C112.352 133.68 114.51 135.294 117.301 136.585C119.676 137.615 122.386 138.215 125.433 138.384C126.034 138.418 126.648 138.434 127.276 138.434C128.605 138.434 129.874 138.362 131.082 138.216C133.475 137.928 135.633 137.355 137.555 136.497C140.499 135.206 142.732 133.474 144.255 131.302C145.829 129.072 146.615 126.636 146.615 123.994C146.615 120.296 145.499 117.126 143.265 114.485C141.083 111.784 137.783 110.023 133.367 109.201L131.082 108.775L128.646 108.321C127.275 108.101 126.204 107.914 125.433 107.759C125.177 107.708 124.953 107.661 124.763 107.617C124.314 107.505 123.946 107.359 123.659 107.177C123.492 107.071 123.352 106.954 123.24 106.824C122.987 106.472 122.86 105.944 122.86 105.239C122.86 104.417 123.24 103.801 124.002 103.39C124.763 102.979 125.753 102.774 126.971 102.774C128.393 102.774 129.484 102.95 130.245 103.302C131.007 103.596 131.717 104.036 132.377 104.623C133.139 105.269 133.798 105.591 134.357 105.591H143.418C143.516 105.591 143.612 105.584 143.705 105.57C144.143 105.502 144.53 105.274 144.864 104.887C145.321 104.417 145.524 103.86 145.473 103.214C145.321 101.159 144.433 99.193 142.808 97.3146C141.184 95.4362 138.976 93.91 136.184 92.7359C134.595 92.021 132.894 91.5135 131.082 91.2132C129.77 90.9956 128.4 90.8869 126.971 90.8869C126.45 90.8869 125.938 90.9016 125.433 90.931C122.593 91.0964 120.01 91.7274 117.682 92.824C114.992 94.0567 112.885 95.759 111.363 97.931C109.89 100.044 109.154 102.422 109.154 105.063C109.154 105.744 109.186 106.404 109.248 107.043C109.447 109.075 109.961 110.894 110.791 112.498C111.207 113.302 111.702 114.052 112.276 114.749Z" fill="black"/>
<path fill-rule="evenodd" clip-rule="evenodd" d="M131.082 160.444L184.19 128.405L162.651 119.498C160.386 135.574 147.353 148.191 131.082 149.821V160.444ZM125.433 160.444V149.941C108.663 148.978 95.0125 136.375 92.4373 120.088L72.3255 128.405L125.433 160.444ZM183.707 122.118L171.128 101.701L197.875 75.0764L181.892 59.1572L158.978 81.9749L131.082 36.7063V79.1785C148.695 80.9435 162.514 95.5826 162.987 113.546L183.707 122.118ZM125.433 36.7063L97.5459 81.9749L74.6238 59.1572L58.6407 75.0764L85.3874 101.693L72.8079 122.118L92.0014 114.178C92.1683 95.4124 106.895 80.1235 125.433 79.0592V36.7063ZM121.185 119.68C117.327 118.858 114.357 117.214 112.276 114.749C111.702 114.052 111.207 113.302 110.791 112.498C109.961 110.894 109.447 109.075 109.248 107.043C109.186 106.404 109.154 105.744 109.154 105.063C109.154 102.422 109.89 100.044 111.363 97.931C112.885 95.759 114.992 94.0567 117.682 92.824C120.01 91.7274 122.593 91.0964 125.433 90.931C125.938 90.9016 126.45 90.8869 126.971 90.8869C128.4 90.8869 129.77 90.9956 131.082 91.2132C132.894 91.5135 134.595 92.021 136.184 92.7359C138.976 93.91 141.184 95.4362 142.808 97.3146C144.433 99.193 145.321 101.159 145.473 103.214C145.524 103.86 145.321 104.417 144.864 104.887C144.53 105.274 144.143 105.502 143.705 105.57C143.612 105.584 143.516 105.591 143.418 105.591H134.357C133.798 105.591 133.139 105.269 132.377 104.623C131.717 104.036 131.007 103.596 130.245 103.302C129.484 102.95 128.393 102.774 126.971 102.774C125.753 102.774 124.763 102.979 124.002 103.39C123.24 103.801 122.86 104.417 122.86 105.239C122.86 105.944 122.987 106.472 123.24 106.824C123.352 106.954 123.492 107.071 123.659 107.177C123.946 107.359 124.314 107.505 124.763 107.617C124.953 107.661 125.177 107.708 125.433 107.759C126.204 107.914 127.275 108.101 128.646 108.321L131.082 108.775L133.367 109.201C137.783 110.023 141.083 111.784 143.265 114.485C145.499 117.126 146.615 120.296 146.615 123.994C146.615 126.636 145.829 129.072 144.255 131.302C142.732 133.474 140.499 135.206 137.555 136.497C135.633 137.355 133.475 137.928 131.082 138.216C129.874 138.362 128.605 138.434 127.276 138.434C126.648 138.434 126.034 138.418 125.433 138.384C122.386 138.215 119.676 137.615 117.301 136.585C114.51 135.294 112.352 133.68 110.83 131.743C109.358 129.805 108.545 127.839 108.393 125.843C108.342 125.197 108.52 124.64 108.926 124.17C109.383 123.701 109.89 123.466 110.449 123.466H119.89C120.246 123.466 120.525 123.554 120.728 123.73C120.982 123.847 121.261 124.082 121.565 124.434C122.174 125.08 122.86 125.608 123.621 126.019C124.382 126.371 125.601 126.548 127.276 126.548C128.849 126.548 130.169 126.313 131.235 125.843C132.352 125.315 132.91 124.64 132.91 123.818C132.91 122.879 132.504 122.262 131.692 121.969C130.931 121.617 129.255 121.206 126.667 120.736L121.185 119.68Z" fill="white"/>
<path fill-rule="evenodd" clip-rule="evenodd" d="M256 128C256 198.692 198.692 256 128 256C57.3075 256 0 198.692 0 128C0 57.3075 57.3075 0 128 0C198.692 0 256 57.3075 256 128ZM184.19 128.405L131.082 160.444V149.821C129.904 149.94 128.709 150 127.5 150C126.806 150 126.117 149.98 125.433 149.941V160.444L72.3255 128.405L92.4373 120.088C95.0125 136.375 108.663 148.978 125.433 149.941C126.117 149.98 126.806 150 127.5 150C128.709 150 129.904 149.94 131.082 149.821C147.353 148.191 160.386 135.574 162.651 119.498L184.19 128.405ZM171.128 101.701L183.707 122.118L162.987 113.546C162.514 95.5826 148.695 80.9435 131.082 79.1785V36.7063L158.978 81.9749L181.892 59.1572L197.875 75.0764L171.128 101.701ZM97.5459 81.9749L125.433 36.7063V79.0592C106.895 80.1235 92.1683 95.4124 92.0014 114.178L72.8079 122.118L85.3874 101.693L58.6407 75.0764L74.6238 59.1572L97.5459 81.9749ZM131.082 176.896L183.593 145.215L165.961 169.936L191.225 195.085L175.242 210.996L152.689 188.545L131.082 218.855V176.896ZM72.922 145.215L125.433 176.896V218.846L103.827 188.554L81.2732 210.996L65.2901 195.085L90.5543 169.936L72.922 145.215ZM112.276 114.749C114.357 117.214 117.327 118.858 121.185 119.68L126.667 120.736C129.255 121.206 130.931 121.617 131.692 121.969C132.504 122.262 132.91 122.879 132.91 123.818C132.91 124.64 132.352 125.315 131.235 125.843C130.169 126.313 128.849 126.548 127.276 126.548C125.601 126.548 124.382 126.371 123.621 126.019C122.86 125.608 122.174 125.08 121.565 124.434C121.261 124.082 120.982 123.847 120.728 123.73C120.525 123.554 120.246 123.466 119.89 123.466H110.449C109.89 123.466 109.383 123.701 108.926 124.17C108.52 124.64 108.342 125.197 108.393 125.843C108.545 127.839 109.358 129.805 110.83 131.743C112.352 133.68 114.51 135.294 117.301 136.585C119.676 137.615 122.386 138.215 125.433 138.384C126.034 138.418 126.648 138.434 127.276 138.434C128.605 138.434 129.874 138.362 131.082 138.216C133.475 137.928 135.633 137.355 137.555 136.497C140.499 135.206 142.732 133.474 144.255 131.302C145.829 129.072 146.615 126.636 146.615 123.994C146.615 120.296 145.499 117.126 143.265 114.485C141.083 111.784 137.783 110.023 133.367 109.201L131.082 108.775L128.646 108.321C127.275 108.101 126.204 107.914 125.433 107.759C125.177 107.708 124.953 107.661 124.763 107.617C124.314 107.505 123.946 107.359 123.659 107.177C123.492 107.071 123.352 106.954 123.24 106.824C122.987 106.472 122.86 105.944 122.86 105.239C122.86 104.417 123.24 103.801 124.002 103.39C124.763 102.979 125.753 102.774 126.971 102.774C128.393 102.774 129.484 102.95 130.245 103.302C131.007 103.596 131.717 104.036 132.377 104.623C133.139 105.269 133.798 105.591 134.357 105.591H143.418C143.516 105.591 143.612 105.584 143.705 105.57C144.143 105.502 144.53 105.274 144.864 104.887C145.321 104.417 145.524 103.86 145.473 103.214C145.321 101.159 144.433 99.193 142.808 97.3146C141.184 95.4362 138.976 93.91 136.184 92.7359C134.595 92.021 132.894 91.5135 131.082 91.2132C129.77 90.9956 128.4 90.8869 126.971 90.8869C126.45 90.8869 125.938 90.9016 125.433 90.931C122.593 91.0964 120.01 91.7274 117.682 92.824C114.992 94.0567 112.885 95.759 111.363 97.931C109.89 100.044 109.154 102.422 109.154 105.063C109.154 105.744 109.186 106.404 109.248 107.043C109.447 109.075 109.961 110.894 110.791 112.498C111.207 113.302 111.702 114.052 112.276 114.749Z" fill="black"/>
</svg>
